X: 89
T:Farewell To Joe
% Nottingham Music Database
S:Chris Dewhurst 1979, via Phil Rowe
M:6/8
K:A
"E7"A2B |"A"c2e ABc|"D"d2f agf|"A"efe c2A|E3 B2c|
"E"ded B2d|"E"GBd f2e|"A"c3 E^DE|=F3 E3|"A"c2e ABc|"D"d2f agf|
"A"efe c2A|E3 A3|"E"G2B "A"A2c|"B7"B2a f2^d|"E"e3 -"Bm"e3|"E"e3 e3||
"Bm"f2e f2e|"E"gfe "E7"dcB|"A"A2c dcA|E3 A3|"E"G2B "A"A2c|
"B7"B2a f2^d|"E"e3 -"Bm"e3|"E"e3 "E7"c2d|"A"e2c A2B|"A7"c2d ecA|"D"e2d F2A|
"Dm"e2d A2B|"A"c2e "F#m"ABc|"Bm"dBG "E7"EFG|"A"A3 -A3|A3 ||


